!!!!SEGMENT: 027-1-BH-001.krn
!!!COM: Chopin, Frederic
!!!OTL: Nocturne 1.
!!!OPS: Op. 27
!!!PTL: Deux Nocturnes
!!!PPR: Breitkopf & Härtel
!!!PPP: Leipzig
!!!NIFC-rismID:  1001022575
!!!NIFC-shelfmark: PL-Wbfc 2444/n
!!!OMD: Larghetto
!!!OMD: M.M. [half] = 42.
**kern	**kern	**dynam
*part1	*part1	*part1
*staff2	*staff1	*
*clefF4	*clefG2	*
*k[f#c#g#d#]	*k[f#c#g#d#]	*
*c#:	*c#:	*
*M4/4	*M4/4	*
*met(c)	*met(c)	*
*MM84	*MM84	*
=1-	=1-	=1-
!LO:TX:b:t=P:problem:"6" w sekstoli na dole	!	!
*ped	*	*
12CC#L	1rdd	pp<
!LO:TX:b:i:t=legato.	!	!
12GG#	.	.
12G#	.	.
12C#	.	.
12GG#	.	.
12CC#J	.	.
!LO:TX:b:t=P:problem:"6" w sekstoli na dole	!	!
12GG#L	.	.
12C#	.	.
12G#	.	.
12C#	.	.
12GG#	.	.
12CC#J	.	[
=2	=2	=2
!LO:TX:b:t=P:problem:"6" w sekstoli na dole	!	!
12GG#L	1rdd	>
12C#	.	.
12G#	.	.
12C#	.	.
12GG#	.	.
12CC#J	.	.
!LO:TX:b:t=P:problem:"6" w sekstoli na dole	!	!
12GG#L	.	.
12C#	.	.
12G#	.	.
12C#	.	.
12GG#	.	.
12CC#J	.	]
!!LO:LB:g=original
=3	=3	=3
*Xtuplet	*	*
!	!LO:TX:b:i:t=sotto voce.	!
12GG#L	(2ee	.
12C#	.	.
12G#	.	.
12C#	.	.
12GG#	.	.
*Xped	*	*
12CC#J	.	.
*ped	*	*
12GG#L	4ee#X'	<
12C#	.	.
12B	.	.
12C#	4ee#'	[
12GG#	.	.
*Xped	*	*
12CC#J	.	.
=4	=4	=4
*ped	*	*
12GG#L	2ee#X	.
12C#	.	.
12B	.	.
12C#	.	.
12GG#	.	.
*Xped	*	*
12CC#J	.	.
*ped	*	*
12AAL	)[2ff#	.
12C#	.	.
12A	.	.
12C#	.	.
12AA	.	.
*Xped	*	*
12CC#J	.	.
=5	=5	=5
*ped	*	*
12AAL	4ff#](	>
12Dn	.	.
12A	.	.
12D	8.eeL	.
12AA	.	.
*Xped	*	*
12CC#J	.	.
.	16ddnJk	]
*ped	*	*
12AAL	4cc#	.
12D	.	.
12A	.	.
12D	4b#X)	.
12AA	.	.
*Xped	*	*
12CC#J	.	.
!!LO:LB:g=original
=6	=6	=6
*ped	*	*
12GG#L	(4cc#	.
12E	.	.
12c#	.	.
12E	2gg#	.
12GG#	.	.
*Xped	*	*
12CC#J	.	.
*ped	*	*
12BBBL	.	.
12BB	.	.
12d#	.	.
!	!LO:TX:b:t=P:problem:"3" w trioli na górze	!
12A	12gg#L	.
12BB	12.ff#	.
*Xped	*	*
12BBBJ	.	.
.	24eeJk	.
=7	=7	=7
*ped	*	*
12EEL	2ee	<
12BB	.	.
12e	.	.
12G#	.	.
12BB	.	.
*Xped	*	*
12DD#J	.	.
*ped	*	*
12CC#L	4ee'	.
12GG#	.	.
12G#	.	.
12C#	4ee'	[
12GG#	.	.
*Xped	*	*
12CC#J	.	.
=8	=8	=8
*ped	*	*
12GG#L	2ee#X	.
12C#	.	.
12B	.	.
12C#	.	.
12GG#	.	.
*Xped	*	*
12CC#J	.	.
*ped	*	*
12AAL	)[2ff#	.
12C#	.	.
12A	.	.
12C#	.	.
12AA	.	.
*Xped	*	*
12CC#J	.	.
!!LO:LB:g=original
=9	=9	=9
*ped	*	*
12AAL	4ff#](	pp>
12Dn	.	.
12A	.	.
12D	8.eenyL	.
12AA	.	.
12CC#J	.	.
.	16ddnJk	.
12AAL	4cc#	.
12D	.	.
12A	.	.
12D	)4b#X	]
12AA	.	.
12CC#J	.	.
=10	=10	=10
12AAL	1rdd	[
12Dn	.	.
12A	.	.
12D	.	.
12AA	.	.
12CC#J	.	.
12AAL	.	.
12D	.	.
12A	.	.
12D	.	.
12AA	.	.
*Xped	*	*
12CC#J	.	.
=11	=11	=11
*	*^	*
*ped	*	*	*
12GG#L	(4ccc#	4cc#	.
12E	.	.	.
12c#	.	.	.
12E	4gg#/^<	2.reyy	.
12GG#	.	.	.
*Xped	*	*	*
12CC#J	.	.	.
*	*Xtuplet	*	*
*ped	*	*	*
12CC#L	12ff#L	.	.
12GG#	12gg#	.	.
12B#X	12ff#J	.	.
*	*tuplet	*	*
12F#	8.eeL	.	.
12GG#	.	.	.
*Xped	*	*	*
12CC#J	.	.	.
.	16dd#Jk	.	.
*	*v	*v	*
!!LO:LB:g=original
=12	=12	=12
*ped	*	*
12CC#L	2cc#	.
12GG#	.	.
12c#	.	.
12E	.	.
12GG#	.	.
*Xped	*	*
12CC#J	.	.
*ped	*	*
12CC#L	2dd#	.
12GG#	.	.
12B#X	.	.
12F#	.	.
12GG#	.	.
*Xped	*	*
12CC#J	.	.
=13	=13	=13
*ped	*	*
12CC#L	8.eeL	.
12GG#	.	.
12c#	.	.
.	16ff#Jk	.
12E	4gg#	.
12GG#	.	.
*Xped	*	*
12CC#J	.	.
*ped	*	*
12GGG#L	4ff#	.
12GG#	.	.
12B#X	.	.
12F#	4ddn^<	.
12GG#	.	.
*Xped	*	*
12GGG#J	.	.
=14	=14	=14
*ped	*	*
12CC#L	2cc#	.
12GG#	.	.
12c#	.	.
12E	.	.
12GG#	.	.
*Xped	*	*
12EEJ	.	.
*ped	*	*
12CC#L	)4g#	.
12GG#	.	.
12B#X	.	.
12F#	(4gg#	.
12GG#	.	.
*Xped	*	*
12CC#J	.	.
!!LO:PB:g=original
=15	=15	=15
*ped	*	*
12CC#L	4ccc#	.
12GG#	.	.
12c#	.	.
12E	4gg#	.
12GG#	.	.
*Xped	*	*
12CC#J	.	.
*	*Xtuplet	*
*ped	*	*
12CC#L	12ff#L	.
12GG#	12gg#	.
12B#X	12ff#J	.
*	*tuplet	*
12F#	8.eeL	.
12GG#	.	.
*Xped	*	*
12CC#J	.	.
.	16dd#Jk)	.
=16	=16	=16
*ped	*	*
12CC#L	(>2cc#	.
12GG#	.	.
12c#	.	.
12E	.	.
12GG#	.	.
*Xped	*	*
12CC#J	.	.
*ped	*	*
12GGG#L	2dd#	.
12GG#	.	.
12B#X	.	.
12F#	.	.
12GG#	.	.
*Xped	*	*
12GGG#J	.	.
=17	=17	=17
*ped	*	*
12CC#L	8.eeL	.
12GG#	.	.
12c#	.	.
.	16ff#Jk	.
12E	4gg#	.
12GG#	.	.
*Xped	*	*
12CC#J	.	.
*ped	*	*
12FF#L	4ff#	.
12D#	.	.
*Xped	*	*
12AJ	.	.
*ped	*	*
12GG#L/	4ddn^<	.
12F#/	.	.
*Xped	*	*
12B#XJ/	.	.
!!LO:LB:g=original
=18	=18	=18
*ped	*	*
12CC#L	)1cc#	.
12GG#	.	.
12c#	.	.
12E	.	.
12GG#	.	.
12CC#J	.	.
12CC#L	.	.
12GG#	.	.
12G#	.	.
12C#	.	.
12GG#	.	.
12CC#J	.	.
=19	=19	=19
12GG#L	(2ee	.
12C#	.	.
12G#	.	.
12C#	.	.
12GG#	.	.
12CC#J	.	.
12GG#L	4ee	.
12C#	.	.
12G#	.	.
12C#	4ee	.
12GG#	.	.
*Xped	*	*
12CC#J	.	.
=20	=20	=20
*	*^	*
*ped	*	*	*
12GG#L	2ee#X	4b	.
12C#	.	.	.
12G#	.	.	.
12C#	.	8.cc#L	.
12GG#	.	.	.
*Xped	*	*	*
12CC#J	.	.	.
.	.	16bJk	.
*ped	*	*	*
12FF#L	)2ff#(	4b	.
12C#	.	.	.
12c#	.	.	.
12F#	.	8.aL	.
12C#	.	.	.
*Xped	*	*	*
12FF#J	.	.	.
.	.	16g#Jk	.
!!LO:LB:g=original
=21	=21	=21	=21
*ped	*	*	*
12FFF#L	4ff#	1f#	.
12FF#	.	.	.
12A	.	.	.
12Dn	8.eenyL	.	.
12FF#	.	.	.
*Xped	*	*	*
12FFF#J	.	.	.
.	16ddnJk	.	.
*ped	*	*	*
12GGG#L	4cc#	.	.
12GG#	.	.	.
12G#	.	.	.
12D#X	)4b#X	.	.
12GG#	.	.	.
*Xped	*	*	*
12GGG#J	.	.	.
=22	=22	=22	=22
*ped	*	*	*
12CC#L	(4cc#	4e	.
12GG#	.	.	.
12c#	.	.	.
12E	2gg#	4re	.
12GG#	.	.	.
*Xped	*	*	*
12CC#J	.	.	.
*ped	*	*	*
!	!	!LO:TX:b:t=P:problem:"5" w kwintoli na górze	!
12BBBL	.	(>20a'>LL	.
.	.	20b'>	.
12BB	.	.	.
.	.	20a'>	.
.	.	20g#'>	.
12d#	.	.	.
.	.	20a'>JJ)	.
12A	4ff#)	8.bL\	.
12BB	.	.	.
*Xped	*	*	*
12BBBJ	.	.	.
.	.	16f#Jk	.
!!LO:LB:g=original
=23	=23	=23	=23
*ped	*	*	*
12EEL	(2ee	1g#	.
12BB	.	.	.
12e	.	.	.
12G#	.	.	.
12BB	.	.	.
*Xped	*	*	*
12DD#J	.	.	.
*ped	*	*	*
12CC#L	4ee'	.	.
12GG#	.	.	.
12G#	.	.	.
12C#	4ee'	.	.
12GG#	.	.	.
*Xped	*	*	*
12CC#J	.	.	.
!!LO:LB:g=original
=24	=24	=24	=24
*ped	*	*	*
12CC#L	2ee#X	4b	.
12GG#	.	.	.
12c#	.	.	.
12E#X	.	8.cc#L	.
12GG#	.	.	.
*Xped	*	*	*
12CC#J	.	.	.
.	.	16bJk	.
*ped	*	*	*
12CC#L	)[2ff#	4b	.
12AA	.	.	.
12c#	.	.	.
12F#	.	8.aL	.
12AA	.	.	.
*Xped	*	*	*
12CC#J	.	.	.
.	.	16g#Jk	.
=25	=25	=25	=25
12CC#L	(4ff#]	1f#	.
12AA	.	.	.
12A	.	.	.
12Dn	8.eenyL	.	.
12AA	.	.	.
*Xped	*	*	*
12CC#J	.	.	.
.	16ddnJk	.	.
*ped	*	*	*
12CC#L	4cc#	.	.
12AA	.	.	.
12A	.	.	.
12D	[4b#X	.	.
12AA	.	.	.
*Xped	*	*	*
12CC#J	.	.	.
=26	=26	=26	=26
*ped	*	*	*
!	!	!LO:TX:t=ritenuto.	!
12CC#L	2b#X])	(>4f#	.
!	!LO:TX:t=P:kreseczki ritenuto do taktu 28:problem	!	!
12AA	.	.	.
12A	.	.	.
12Dn	.	8.eL	.
12AA	.	.	.
*Xped	*	*	*
12CC#J	.	.	.
.	.	16dnJk	.
*ped	*	*	*
12CC#L	2rdd	4c#	.
12AA	.	.	.
12A	.	.	.
12D	.	4B#X)	.
12AA	.	.	.
*Xped	*	*	*
12CC#J	.	.	.
*	*v	*v	*
!!LO:LB:g=original
=27	=27	=27
*ped	*	*
(>12AAL	1rdd	.
12Dn	.	.
12A	.	.
12dny	.	.
12A	.	.
12DJ	.	.
12AAL	.	.
12D	.	.
12A	.	.
12D	.	.
12AA	.	.
12CC#J	.	.
=28	=28	=28
12DnL	1rdd	.
12A	.	.
12dny	.	.
12f#	.	.
12d	.	.
12AJ	.	.
12AAL	.	.
12D	.	.
12A	.	.
12D	.	.
12AA	.	.
*Xped	*	*
12CC#J)	.	.
!!LO:PB:g=original
==29||	==29||	==29||
*M3/4	*M3/4	*
*	*	*
!	!LO:TX:B:a:t=P: Piú Mosso [half dotted] 54.:problem	!
*	*^	*
*^	*	*	*
!	!	!LO:TX:b:t=P:ćwierćnuty przed półnutami (takty 29-44):problem	!	!
!LO:TX:b:t=P:problem:nie działa komenda vis=2., a powinny być wspólne nuty na raz do t.36	!	!	!	!
!	!	!	!LO:TX:a:t=Ten.	!
!LO:TX:vis=2.	!	!	!	!
12BBB#XL	(<2.BBB#X	2.f# 2.d#\	(>4.g#^> 4.G#/	p
12FF##X	.	.	.	.
12GG#J	.	.	.	.
12AAL	.	.	.	.
12GG#	.	.	.	.
.	.	.	8g# 8G#/	.
12AAJ	.	.	.	.
12GG#L	.	.	4g# 4G#/	.
12AA	.	.	.	.
12GG#J)	.	.	.	.
=30	=30	=30	=30	=30
!	!	!	!LO:TX:a:t=Ten.	!
!LO:TX:vis=2.	!	!	!	!
12CC#L	(<2.CC#	4.c#\	2.g#^> 2.G#/	.
12FF##X	.	.	.	.
12GG#J	.	.	.	.
12AAL	.	.	.	.
12GG#	.	.	.	.
.	.	8e\	.	.
12AAJ	.	.	.	.
12GG#L	.	4c#\)	.	.
12AA	.	.	.	.
12GG#J)	.	.	.	.
=31	=31	=31	=31	=31
!	!	!	!LO:TX:a:t=Ten.	!
!LO:TX:vis=2.	!	!	!	!
12DD#L	(<2.DD#	(>4.g#^> 4.G#	2.B#X	.
12FF##X	.	.	.	.
12GG#J	.	.	.	.
12AAL	.	.	.	.
12GG#	.	.	.	.
.	.	8g# 8G#	.	.
12AAJ	.	.	.	.
12GG#L	.	4g# 4G#	.	.
12AA	.	.	.	.
12GG#J)	.	.	.	.
=32	=32	=32	=32	=32
!	!	!	!LO:TX:a:t=Ten.	!
!LO:TX:vis=2.	!	!	!	!
12EEL	(<2.EE)	4.c#\	2.g#^> 2.G#/	.
12FF##X	.	.	.	.
12GG#J	.	.	.	.
12AAL	.	.	.	.
12GG#	.	.	.	.
.	.	8e\	.	.
12AAJ	.	.	.	.
12GG#L	.	4c#\)	.	.
12AA	.	.	.	.
12GG#J)	.	.	.	.
!!LO:LB:g=original
=33	=33	=33	=33	=33
!LO:TX:i:a:t=poco	!	!	!	!
!LO:TX:vis=2.	!	!	!	!
12EE#XL	(<2.EE#X	2.b 2.g#\	(>4.cc#^> 4.c#/	.
12BB#X	.	.	.	.
12C#J	.	.	.	.
!LO:TX:i:a:t=a	!	!	!	!
12DnL	.	.	.	.
12C#	.	.	.	.
.	.	.	8cc# 8c#/	.
12DJ	.	.	.	.
!LO:TX:i:a:t=poco	!	!	!	!
12C#L	.	.	4cc# 4c#/	.
12D	.	.	.	.
12C#J)	.	.	.	.
=34	=34	=34	=34	=34
!LO:TX:vis=2.	!	!	!	!
!	!LO:TX:a:t=P:kreseczki do taktu 37:problem	!	!	!
12FF#L	(<2.FF#	4.f#\	2.cc#^> 2.c#/	<
12BB#X	.	.	.	.
12C#J	.	.	.	.
12DnL	.	.	.	.
12C#	.	.	.	.
.	.	8a\	.	.
12DJ	.	.	.	.
12C#L	.	4f#)\	.	.
12D	.	.	.	.
12C#J)	.	.	.	.
=35	=35	=35	=35	=35
!LO:TX:vis=2.	!	!	!	!
12GG#L	(<2.GG#	(>4.cc#^> 4.c#	2.e#X	.
12BB#X	.	.	.	.
12C#J	.	.	.	.
12DnL	.	.	.	.
12C#	.	.	.	.
.	.	8cc# 8c#	.	.
12DJ	.	.	.	.
12C#L	.	4cc# 4c#	.	.
12D	.	.	.	.
12C#J)	.	.	.	.
=36	=36	=36	=36	=36
!LO:TX:vis=2.	!	!	!	!
12AAL	(<2.AA	4.f#\	2.cc#^> 2.c#/	.
12BB#X	.	.	.	.
12C#J	.	.	.	.
12DnL	.	.	.	.
12C#	.	.	.	.
.	.	8a\	.	.
12DJ	.	.	.	.
12C#L	.	4f#)\	.	.
12D	.	.	.	.
12C#J)	.	.	.	.
*v	*v	*	*	*
!!LO:LB:g=original
=37	=37	=37	=37
*	*	*ped	*
!LO:TX:B:i:b:t=fz	!	!	!
(12BB#XL\ 12BBB#X	2.ff# 2.dd#\	(>4..gg#^> 4..g#/	f
12F##X	.	.	.
12G#J	.	.	.
12AL	.	.	.
12G#	.	.	.
12F##J	.	.	.
.	.	16gg# 16g#/	.
12G#L	.	4gg# 4g#/	.
12d#	.	.	.
*Xped	*	*	*
12G#J)	.	.	.
=38	=38	=38	=38
!LO:TX:b:t=P:oznaczenie dynamiki na dole (takty 38-44):problem	!	!	!
*	*	*ped	*
!	!	!	!LO:DY:b
(12C#L 12CC#	4..cc#\	2.gg#^> 2.g#/	f
12F##X	.	.	.
12G#J	.	.	.
12AL	.	.	.
12G#	.	.	.
12F##J	.	.	.
.	16ee\	.	.
12G#L	4cc#)\	.	.
12e	.	.	.
*Xped	*	*	*
12G#J)	.	.	.
=39	=39	=39	=39
*	*	*ped	*
!	!	!	!LO:DY:b
(12D#L 12DD#	(>4..gg#^> 4..g#	2.b#X	fz
12F##X	.	.	.
12G#J	.	.	.
12AL	.	.	.
12G#	.	.	.
12F##J	.	.	.
.	16gg# 16g#	.	.
12G#L	4gg# 4g#	.	.
12f#X	.	.	.
*Xped	*	*	*
12G#J)	.	.	.
=40	=40	=40	=40
*	*	*ped	*
!	!	!	!LO:DY:b
(>12EL 12EE	4..cc#\	2.gg#^> 2.g#/	fz
12F##X	.	.	.
12G#J	.	.	.
12AL	.	.	.
12G#	.	.	.
12F##J	.	.	.
.	16ee\	.	.
12G#L	4cc#\)	.	.
12g#	.	.	.
*Xped	*	*	*
12G#J)	.	.	.
!!LO:LB:g=original
=41	=41	=41	=41
*	*	*ped	*
!	!LO:TX:a:i:t=sempre più stretto._	!	!
!	!	!	!LO:DY:b
!	!LO:TX:t=P:kreseczki do taktu 45.:problem	!	!
(12E#XL 12EE#X	2.bb 2.gg#\	(>4..ccc#^< 4..cc#/	fz<
12B#X	.	.	<
12c#J	.	.	.
12dnL	.	.	.
12c#	.	.	.
12B#J	.	.	.
.	.	16ccc# 16cc#/	.
!	!	!LO:TX:b:t=P:problem:"3" w trioli na dole	!
12c#L	.	12ccc#L 12cc#/	.
12b	.	12ccc# 12cc#/	.
*Xped	*	*	*
12c#J)	.	12ccc#J 12cc#/	[
=42	=42	=42	=42
*	*	*ped	*
!	!	!	!LO:DY:b
(12F#L 12FF#	4..ff#\	2.ccc# 2.cc#/	fz
12B#X	.	.	.
12c#J	.	.	.
12d#L	.	.	.
12c#	.	.	.
12B#XJ	.	.	.
.	16aa\	.	.
12c#L	4ff#\)	.	.
!	!	!LO:TX:a:i:t=ed_	!
12a	.	.	.
*	*	*Xped	*
12c#J)	.	.	.
=43	=43	=43	=43
*	*	*ped	*
!	!	!	!LO:DY:b
(12G#L 12GG#	[4ccc# [<4cc#(	2.ee#X	fz
12B#X	.	.	.
12c#J	.	.	.
!	!	!LO:TX:b:t=P:problem:"3" w trioli na dole	!
12dnL	12ccc#L] 12cc#]	.	.
12c#	12ccc# 12cc#'>	.	.
12B#J	12ccc#J 12cc#'>	.	.
!	!	!LO:TX:b:t=P:problem:"3" w trioli na dole	!
12c#L	12ccc#L 12cc#'>	.	.
12g#	12ccc# 12cc#'>	.	.
*Xped	*	*	*
!	!	!LO:TX:b:t=P:verovio renderuje przerwę:problem	!
12c#J)	12ccc#'<J 12cc#'>	.	.
=44	=44	=44	=44
*	*	*ped	*
!	!	!	!LO:DY:b
(12AL 12AA	4..ff#\	2.ccc# 2.cc#/	fz
12B#X	.	.	.
12c#J	.	.	.
12dnL	.	.	.
12c#	.	.	.
12B#J	.	.	.
.	16aa\	.	.
12c#L	4ff#\)	.	.
12cc#	.	.	.
*Xped	*	*	*
12c#J)	.	.	.
*	*v	*v	*
!!LO:LB:g=original
=45	=45	=45
!	!LO:TX:a:i:t=appasionato.	!
*	*ped	*
12AAA#X'L	4..eee 4..ccc# 4..ff##X 4..ee	ff
12C#'	.	.
12CC#'J	.	.
12E'L	.	.
12EE'	.	.
12F##X'J	.	.
.	16eee 16ccc# 16ff## 16ee	.
12FF##X'L	4eee 4ccc# 4ff## 4ee	.
12A#y'	.	.
*Xped	*	*
12AA#y'J	.	.
=46	=46	=46
*	*ped	*
12BB'L	(>4eee 4gg# 4ee	>
(12B	.	.
12G#J	.	.
12eL	4bb 4gg# 4ee	.
12B	.	.
12g#J	.	.
12eL	4gg# 4ee 4b	]
12B	.	.
*Xped	*	*
12G#J)	.	.
=47	=47	=47
*	*ped	*
.	8qgg#/	<
(>12BBB'L\	4ff#^ 4dd# 4b 4a	.
12BB	.	.
12F#J	.	.
12BL	4ee^ 4cc# 4b 4a	.
12F#	.	.
12d#J	.	.
12BL	4ff#^ 4dd# 4b 4a	.
12F#	.	.
*Xped	*	*
12BBJ)	.	.
=48	=48	=48
*	*^	*
!	!LO:TX:b:t=P:ćwierćnuta z kropką przed półnutami z kropką:problem	!	!
*	*ped	*	*
(12EEL\	4.ee\	2.gg#^>/ 2.g#	.
12E	.	.	.
12BBJ)	.	.	.
(12EEL\	.	.	.
12G#	.	.	.
*	*Xped	*	*
.	8dd#\	.	.
12BBJ)	.	.	.
*ped	*	*	*
(12EEL\	4ddn\)	.	[
12B	.	.	.
*Xped	*	*	*
12BBJ)	.	.	[
*	*v	*v	*
!!LO:LB:g=original
=||49	=||49	=||49
*k[b-e-a-d-]	*k[b-e-a-d-]	*
!	!LO:TX:a:i:t=sostenuto.	!
*	*ped	*
12EE-'\L	(>4..aa- 4..ee- 4..cc 4..a-	fff
12E-'	.	.
12EE-'J	.	.
12A-'L	.	.
12EE-'	.	.
12c'J	.	.
.	16aa- 16ee- 16cc 16a-	.
12EE-'L\	4aa- 4ee- 4cc 4a-	.
12e-'	.	.
12EE-'J	.	.
=50	=50	=50
*clefG2	*	*
12a-'L	4.aa- 4.ee- 4.cc	>
12e-'	.	.
12cc'J	.	.
12a-'L	.	.
12e-'	.	.
.	8ee- 8cc 8a-	]
12c'J	.	.
*clefF4	*	*
12A-'L	4cc) 4a- 4e-\	.
12E-'	.	.
*	*Xped	*
(<12EE-J	.	.
=51	=51	=51
*	*^	*
*	*^	*	*
*	*	*	*ped	*
!	!	!	!LO:TX:a:i:t=ritenuto.	!
12EEE-L)(	(>2.ee-^>\	4.cc/	2g 2e- 2d-	.
12EE-	.	.	.	.
12BB-J	.	.	.	.
12GL	.	.	.	.
12E-	.	.	.	.
.	.	8b-/	.	.
12BB-J	.	.	.	.
12EE-L	.	8.dd-L/	4g 4d-	>
12E-	.	.	.	.
12e-J)	.	.	.	.
*Xped	*	*	*	*
*	*	*	*XpPPed	*
.	.	.	.	]
.	.	16ccJk	.	.
*	*v	*v	*v	*
=52	=52	=52
*	*ped	*
12AAA-'L\	2.a- 2.c)	.
(12E-	.	>
12AA-J	.	.
!LO:TX:i:a:t=dim.	!	!
12E-L\\	.	.
12AA-	.	.
12E-J	.	.
12AA-L\	.	.
12E-	.	]
*	*Xped	*
12AA-J)	.	.
!!LO:PB:g=original
=53	=53	=53
*	*^	*
!	!LO:TX:a:B:t=AGITATO.	!	!
!	!LO:TX:b:i:t=sotto voce	!	!
*ped	*	*	*
(>12F-X^L\	(4.b--^	2.d-	.
12AA-	.	.	.
12F-J	.	.	.
12AA-L\	.	.	.
12F-	.	.	.
.	8b--	.	.
12AA-J	.	.	.
12F-L\	4b--	.	.
12AA-	.	.	.
*Xped	*	*	*
12F-J	.	.	.
=54	=54	=54	=54
*ped	*	*	*
12AA-L\	4.b--^	2.c	.
12E-^	.	.	.
12AA-J	.	.	.
12E-L\	.	.	.
12AA-	.	.	.
.	8a-	.	.
!LO:TX:a:i:t=poco	!	!	!
12E-J	.	.	.
12AA-L\	4e-)	.	.
12E-	.	.	.
*Xped	*	*	*
12AA-J	.	.	.
=55	=55	=55	=55
*ped	*	*	*
12Fn^L\	(4.cc-X^	2.dn	.
12AA-	.	.	.
12FJ	.	.	.
12AA-L\	.	.	.
!LO:TX:a:i:t=a	!	!	!
12F	.	.	.
.	8cc-	.	.
12AA-J	.	.	.
12FL\	4cc-	.	.
12AA-	.	.	.
*Xped	*	*	*
12FJ	.	.	.
=56	=56	=56	=56
!LO:TX:a:i:t=poco	!	!	!
!LO:TX:a:t=P:przerywana linia do taktu 60:problem	!	!	!
*ped	*	*	*
12AA-L\	4.cc-X^	2.e-	.
12G-X^	.	.	.
12AA-J	.	.	.
12G-L\	.	.	.
12AA-	.	.	.
.	8b-	.	.
12G-J	.	.	.
12AA-L\	4ee-)	.	.
12G-	.	.	.
*Xped	*	*	*
12AA-J	.	.	.
!!LO:LB:g=original
=57	=57	=57	=57
*ped	*	*	*
12F^L\	(4.cc-X^	2.dn	<
12AA-	.	.	.
12FJ	.	.	.
12AA-L\	.	.	.
12F	.	.	.
.	8cc-	.	.
12AA-J	.	.	.
12FL\	4cc-	.	.
12AA-	.	.	.
*Xped	*	*	*
12FJ	.	.	.
=58	=58	=58	=58
*ped	*	*	*
12AA-L\	4.cc-X^	2.e-	.
12G-X^	.	.	.
12AA-J	.	.	.
12G-L\	.	.	.
12AA-	.	.	.
.	8b-	.	.
12G-J	.	.	.
12AA-L\	4e-)	.	.
!	!LO:TX:i:t=ed	!	!
12G-	.	.	.
*Xped	*	*	*
12AA-J	.	.	.
=59	=59	=59	=59
*ped	*	*	*
12Gn^L\	(4.dd-^	2.en	.
12AA-	.	.	.
12GJ	.	.	.
12AA-L\	.	.	.
12G	.	.	.
.	8dd-	.	.
12AA-J	.	.	.
12GL\	4dd-	.	.
12AA-	.	.	.
*Xped	*	*	*
12GJ	.	.	.
=60	=60	=60	=60
*	*ped	*	*
12AA-L\	4.dd-^	2.f	.
12A-^	.	.	.
12AA-J	.	.	.
!LO:TX:a:i:t=accellerando.	!	!	!
12A-L\	.	.	.
12AA-	.	.	.
.	8cc	.	.
12A-J	.	.	.
12AA-L\	4ff)	.	.
12A-	.	.	.
*	*Xped	*	*
12AA-J	.	.	.
!!LO:LB:g=original
=61	=61	=61	=61
*ped	*	*	*
12G^L	(4.dd-^	2.en	.
12AA-	.	.	.
12GJ	.	.	.
12AA-L	.	.	.
12G\	.	.	.
.	8dd-	.	.
12AA-J	.	.	.
12GL	4dd-	.	.
12AA-	.	.	.
*Xped	*	*	*
12GJ	.	.	.
=62	=62	=62	=62
*ped	*	*	*
12AA-L	4.dd-^	2.f	.
12A-^\	.	.	.
12AA-J	.	.	.
12A-L	.	.	.
12AA-	.	.	.
.	8cc	.	.
12A-J	.	.	.
12AA-L	4f	.	.
12A-\	.	.	.
*Xped	*	*	*
12AA-J	.	.	.
*	*v	*v	*
=63	=63	=63
*ped	*	*
12B--L	4ee-^< 4cc 4g-X	.
12AA-	.	.
12B--J	.	.
12AA-L	4ee-^< 4cc 4g-	.
12B--\	.	.
12AA-J	.	.
12B--L	4ee-^< 4cc 4g-	.
12AA-	.	.
12B--J	.	.
=64	=64	=64
!	!LO:TX:a:i:t=ritenuto.	!
4B-- 4AA-^<	4ee- 4cc 4g-X	<
4B-- 4AA-^<	4ee- 4cc 4g-	.
*Xped	*	*
4A- 4AA-)	4een 4cc 4g-	[
=65	=65	=65
!	!LO:TX:a:i:t=con anima.	!
*ped	*	*
4d- 4A- 4D-	4ff 4dd- 4f	f>
4d- 4A- 4D-	4dd-\ 4f	.
*Xped	*	*
4d- 4A- 4D-	4a- 4f	]
!!LO:LB:g=original
=66	=66	=66
!	!LO:TX:a:t=Ten.	!
*^	*^	*
*ped	*	*	*	*
2.d- 2.G-X	4rGG	2.b-)	2.g-X^	[
.	4GG-X'/	.	.	.
*Xped	*	*	*	*
.	4GGG-X'/	.	.	.
*v	*v	*	*	*
=67	=67	=67	=67
*ped	*	*	*
!	!LO:TX:a:t=tr	!	!
4DD-'	(8a-L	4f	<
!	!LO:TX:a:i:t=stretto_	!	!
.	8gnJ	.	.
8d-L 8A- 8D-	8a-L'	8fL	.
8d- 8A- 8D-	8b-'	8f	.
8d- 8A- 8D-	8cc'	8f	.
*Xped	*	*	*
8d-J 8A- 8D-	8dd-J'	8fJ	.
=68	=68	=68	=68
4c 4B-- 4D-	4ddn'	4g-X	.
4c 4B-- 4D-	4ee-'	4g-	.
4c 4B-- 4D-	4een'	4g-)	[
=69	=69	=69	=69
4d- 4A- 4D-	(4ff^	4f	>
4d- 4A- 4D-	4dd-^	4f	.
4d- 4A- 4D-	4a-^	4f	]
=70	=70	=70	=70
*^	*	*	*
!	!	!LO:TX:a:t=Ten.	!	!
*ped	*	*	*	*
2.d- 2.G-X	4rGG	2.b-)	2.g-X^	.
.	4GG-X'/	.	.	.
*Xped	*	*	*	*
.	4GGG-X'/	.	.	.
*v	*v	*	*	*
=71	=71	=71	=71
*ped	*	*	*
4DD-'	(8a-LT	4f	<
.	8gnJ	.	.
8d-L 8A- 8D-	8a-'L	8fL	.
8d- 8A- 8D-	8b-'	8f	.
8d- 8A- 8D-	8cc'	8f	.
*Xped	*	*	*
8d-J 8A- 8D-	8dd-'J	8fJ	[
=72	=72	=72	=72
4Gny 4D-	4bn	4f	.
4G 4C	4cc	4en	.
4Bn 4G 4C	4ddn	4f	.
.	.	.	.
=73	=73	=73	=73
4c 4G 4C	4een	4en	pp
4c 4G 4C	4cc	4e	.
4c 4G 4C	4g)	4e	.
!!LO:LB:g=original
=74	=74	=74	=74
*^	*	*	*
!	!	!LO:TX:a:t=Ten.	!	!
*ped	*	*	*	*
2c 2F	4rEE	2.an^	2.f	.
.	4FF'/	.	.	.
4ryy	4FFF'/	.	.	.
*v	*v	*	*	*
*Xped	*	*	*
=75	=75	=75	=75
4CC'	(8gLt	4en	<
.	8f#XJ	.	.
8cL 8G 8C	8g'L	8eL	.
8c 8G 8C	8an'	8e	.
8c 8G 8C	8bn'	8e	.
8cJ 8G 8C	8cc'J	8eJ	[
=76	=76	=76	=76
4Bn 4A- 4C	4cc#'X	4f	.
4B 4A- 4C	4ddn'	4f	.
4B 4G 4C	4dd#X'	4f	.
=77	=77	=77	=77
4c 4G 4C	4een	4en	>
4c 4G 4C	4cc	4e	.
4c 4G 4C	4g)	4e	]
=78	=78	=78	=78
4Bn 4A-	(>4ddn\	4f	<
4c 4An	4ee-\	4g-X	.
4dn 4B	4ff\	4a-	.
=79	=79	=79	=79
!	!	!LO:TX:b:i:t=ed_	!
4e- 4c	4gg-X	4b--	.
4e- 4c	4ee-	4b--	.
4e- 4c	4b--	4b--	.
*	*v	*v	*
=80	=80	=80
!	!LO:TX:b:i:t=acceller.	!
4dn 4Bn	4ff 4a-	.
4e- 4c	4gg-X 4b--	.
4f 4d	4aa- 4cc-X)	.
=||81	=||81	=||81
*k[f#c#g#d#]	*k[f#c#g#d#]	*
4f# 4d#	(4aa 4b#X	fff<
4f# 4d#	4aa 4b# 4a	.
4f# 4d#	4aa 4b# 4a	[
!!LO:LB:g=original
=82	=82	=82
4f# 4d#	4aa 4b#X 4a	<
4f# 4d#	4aa 4b# 4a	.
4f# 4c#	4aa 4cc# 4a	[
=83	=83	=83
*	*^	*
2.f# 2.B#	4ee	2aa 2a	.
.	2dd#\	.	.
.	.	4gg# 4ff# 4g#;>)	.
!	!LO:TX:a:t=P:kreska taktowa tylko w górnej pięciolinii:problem	!	!
*	*v	*v	*
*cue	*	*
!LO:TX:b:i:t=con forza.	!	!
(4B# 4BB;	2.ryy	<
4c# N4C#	.	.
4c## 4C##N	.	[
4.e 4.E	2yy	>
8d#y 8D#y	.	]
*Xtuplet	*	*
*rscale:2	*	*
20cn# 20Cn#L	2.ryy	.
20B# 20BB	.	.
20A 20AA	.	.
20G# 20GG#	.	.
20F## 20FF##	.	.
20G# 20GG#	.	.
20B' 20BBn	.	.
20A' 20AA	.	.
20G#' 20GG#	.	.
20F##' 20FF##	.	.
20E' 20EE	.	.
20D#' 20DD#y	.	.
20C#' 20CC#	.	.
!LO:TX:b:t=P:kasowniki z prawej strony przed krzyżykiem:problem	!	!
20BB#' 20BBB#	.	.
20D#' 20DD#J)	.	.
*rscale:1	*	*
*tuplet	*	*
(2AA^> 2AAA	2.ryy	.
4GG# 4GGG#)	.	.
(4FF##X 4FFF##X	2.ryy	.
4GG# 4GGG#)	.	.
(4DD# 4DDD#	.	.
!LO:TX:b:t=3	!	!
4.FFFn# 4FF.n#	2ryy	.
8EE 8EEE)	.	.
*Xcue	*	*
!!LO:PB:g=original
=||84	=||84	=||84
*M4/4	*M4/4	*
*met(c)	*met(c)	*
*ped	*	*
*Xtuplet	*	*
!	!LO:TX:a:B:t=TEMPO PRIMO.	!
!	!LO:TX:b:i:t=sotto voce.	!
12CC#L	1r	fz<
!LO:TX:b:i:t=legato.	!	!
!LO:TX:b:t=P:zapis dynamiki na dole:problem	!	!
12GG#	.	p
12G#	.	.
12C#	.	.
12GG#	.	.
12CC#J	.	[
!	!	!LO:DY:a
12GG#L	.	>
12C#	.	.
12G#	.	.
12C#	.	.
12GG#	.	.
12CC#J	.	]
=85	=85	=85
12GG#L	1rdd	.
12C#	.	.
12G#	.	.
12C#	.	.
12GG#	.	.
12CC#J	.	.
12GG#L	.	.
12C#	.	.
12G#	.	.
12C#	.	.
12GG#	.	.
*Xped	*	*
12CC#J	.	.
=86	=86	=86
*ped	*	*
12GG#L	(2eeny	.
12C#	.	.
12G#	.	.
12C#	.	.
12GG#	.	.
*Xped	*	*
12CC#J	.	.
*ped	*	*
12GG#L	4ee#X'	.
12C#	.	.
12B	.	.
12C#	4ee#'	.
12GG#	.	.
*Xped	*	*
12CC#J	.	.
=87	=87	=87
*ped	*	*
12GG#L	2ee#X	.
12C#	.	.
12B	.	.
12C#	.	.
12GG#	.	.
*Xped	*	*
12CC#J	.	.
*ped	*	*
12AAL	)2ff#(	.
12C#	.	.
12A	.	.
12C#	.	.
12AA	.	.
*Xped	*	*
12CC#J	.	.
!!LO:LB:g=original
=88	=88	=88
*ped	*	*
12AAL	4ff#	.
12Dn	.	.
12A	.	.
12D	8.eenyL	.
12AA	.	.
*Xped	*	*
12CC#J	.	.
.	16ddnJk	.
*ped	*	*
12AAL	4cc#	.
12D	.	.
12A	.	.
12D	4b#X)	.
12AA	.	.
*Xped	*	*
12CC#J	.	.
=89	=89	=89
*	*^	*
*ped	*	*	*
12GG#L	(4cc#	4rc	.
12E	.	.	.
12c#	.	.	.
12E	2gg#^	8rc	.
12GG#	.	.	.
.	.	16r	.
*Xped	*	*	*
12CC#J	.	.	.
.	.	16a	.
*ped	*	*	*
!	!	!LO:TX:b:t=P:problem:"5" nad kwintolą	!
12BBBL	.	(>20a'>LL	.
.	.	20b'>	.
12BB	.	.	.
.	.	20a'>	.
.	.	20g#'>	.
12d#y	.	.	.
.	.	20a'>JJ)	.
12Any	4ff#)	8.bL	.
12BB	.	.	.
*Xped	*	*	*
12BBBJ	.	.	.
.	.	16f#Jk	.
=90	=90	=90	=90
*ped	*	*	*
12EEL	(2ee	1g#	.
12BB	.	.	.
12e	.	.	.
12G#	.	.	.
12BB	.	.	.
*Xped	*	*	*
12DD#yJ	.	.	.
*ped	*	*	*
12CC#L	4ee'<	.	.
12GG#	.	.	.
12G#	.	.	.
12C#	4ee'<	.	.
12GG#	.	.	.
*Xped	*	*	*
12CC#J	.	.	.
!!LO:LB:g=original
=91	=91	=91	=91
*ped	*	*	*
12CC#L	2ee#X	4bny	.
!	!	!	!LO:HP:a
12GG#	.	.	<
12c#	.	.	.
12E#X	.	8.cc#L	.
12GG#	.	.	.
*Xped	*	*	*
12CC#J	.	.	.
.	.	16bJk	[
*ped	*	*	*
12CC#L	)[2ff#	4b	.
12AA	.	.	.
12c#	.	.	.
12F#	.	8.aL	.
12AA	.	.	.
*Xped	*	*	*
12CC#J	.	.	.
.	.	16g#Jk	.
=92	=92	=92	=92
*ped	*	*	*
12CC#L	4ff#](	1f#	.
12AA	.	.	.
12A	.	.	.
12Dn	8.eeL	.	.
12AA	.	.	.
*Xped	*	*	*
12CC#J	.	.	.
.	16ddnJk	.	.
*ped	*	*	*
12CC#L	4cc#	.	.
12AA	.	.	.
12A	.	.	.
12Dn	)4b#X	.	.
12AA	.	.	.
*Xped	*	*	*
12CC#J	.	.	.
=93	=93	=93	=93
*ped	*	*	*
!LO:TX:a:i:t=con duolo.	!	!LO:TX:a:i:t=ritenuto.	!
12CC#L	1b#	(>4f#^	.
12AA	.	.	.
12A	.	.	.
12D	.	8.e^>L	.
12AA	.	.	.
*Xped	*	*	*
12CC#J	.	.	.
.	.	16dn^>Jk	.
*ped	*	*	*
12CC#L	.	4c#^>	.
12AA	.	.	.
12A	.	.	.
12D	.	4B#X^>)	.
12AA	.	.	.
*Xped	*	*	*
12CC#J	.	.	.
.	.	.	.
=94	=94	=94	=94
*ped	*	*	*
12CC#L	4c#^	4c#	fz
12GG#	.	.	.
!	!LO:TX:a:i:t=calando	!	!
12c#	.	.	p
12E#X	(4ee#X	4cc#	.
12GG#	.	.	.
*Xped	*	*	*
12CC#J	.	.	.
*ped	*	*	*
12CC#L	4a#X	4f#	.
12GG#	.	.	.
12B#X	.	.	.
12D#y	4dd#	8.b#XL	.
12GG#	.	.	.
*Xped	*	*	*
12CC#J	.	.	.
.	.	16a#Jk	.
!!LO:LB:g=original
=95	=95	=95	=95
*ped	*	*	*
12CC#L	4g#	4e#X	.
12GG#	.	.	.
12A#X	.	.	.
12C#	4cc#	4a#X	.
12GG#	.	.	.
*Xped	*	*	*
12CC#J	.	.	.
*ped	*	*	*
12CC#L	4f#	4d#y	.
12GG#	.	.	.
12G#	.	.	.
12BB#X	8.b#XL	8.g#L	.
12GG#	.	.	.
*Xped	*	*	*
12CC#J	.	.	.
.	16a#XJk)	16f#Jk	.
=96	=96	=96	=96
*ped	*	*	*
!LO:TX:a:i:t=rallentando._ _ _	!	!	!
!LO:TX:b:t=P:linia przerywana do Adagio:problem	!	!	!
12CC#L	4rccc	2g# 2e#X	.
12GG#	.	.	.
12c#	.	.	.
12E#X	(2ee#X 2cc#	.	.
12GG#	.	.	.
*Xped	*	*	*
12CC#J	.	.	.
*ped	*	*	*
12CC#L	.	2a#X 2f#	.
12GG#	.	.	.
12B#X	.	.	.
12D#y	[4dd#y [<4b#X	.	.
12GG#	.	.	.
*Xped	*	*	*
12CC#J	.	.	.
=97	=97	=97	=97
*	*	*^	*
*ped	*	*	*	*
12CC#L	4dd#] 4b#X]	2g# 2e#X	2ryy	.
12GG#	.	.	.	.
12A#X	.	.	.	.
12C#	2cc# 2a#X	.	.	.
12GG#	.	.	.	.
*Xped	*	*	*	*
12CC#J	.	.	.	.
*ped	*	*	*	*
12CC#L	.	4f#y/	2d#y\	.
12GG#	.	.	.	.
12G#	.	.	.	.
12BB#X	8.b#XL	8.g#L	.	.
12GG#	.	.	.	.
*Xped	*	*	*	*
12CC#J	.	.	.	.
.	16a#Jk)	16f#Jk	.	.
*	*v	*v	*v	*
!!LO:LB:g=original
=98	=98	=98
*ped	*	*
12CC#L	(>1g#X^ 1enyX	.
12GG#	.	.
12G#	.	.
12C#	.	.
12GG#	.	.
12CC#J	.	.
12GG#L	.	.
12C#	.	<
12G#	.	.
12C#	.	.
12GG#	.	.
*Xped	*	*
12CC#J	.	.
=99	=99	=99
*ped	*	*
!	!LO:TX:a:B:t=ADAGIO.	!
12FF#L	2a#X 2g#X 2c#	.
12C#	.	.
12c#	.	.
12F#	.	.
12C#	.	.
*Xped	*	*
12FF#J	.	.
*ped	*	*
12FFF#L	2a# 2f# 2c#	[
12C#	.	.
12c#	.	.
12F#	.	.
*Xped	*	*
12C#	.	.
*ped	*	*
12FF#J	.	.
=100	=100	=100
*^	*	*
*	*	*^	*
!LO:TX:i:B:b:t=fz	!	!	!	!
!LO:TX:b:t=P:crescendo do 12c pod ósemkami!:problem	!	!	!	!
(<12CCC#'L	2ryy	2cc#	>2g#/ 2f#	>
12CC#'	.	.	.	.
12GG#'	.	.	.	.
12C#'	.	.	.	.
12G#'	.	.	.	.
12c#'<J)	.	.	.	]p
*Xped	*	*	*	*
4ryy	4ryy	4cc#)/ 4g#\	4e#X\	]fz>
*ped	*	*	*	*
[4G# [4E#X	[4C#\ ([4GG#	4ryy	4ryy	]pp
=101	=101	=101	=101	=101
!LO:TX:t=FINE.	!	!	!	!
!	!	!	!LO:TX:t=P:łuk do e#:problem	!
1GG#] 1CC#)	1G#] 1E#] 1C#];	1e#X;	1c#	.
==	==	==	==	==
*-	*-	*-	*-	*-
!!!title: @{OTL}; @{OPS} @{ONM} publisher: @{PPR}
!!!RDF**kern: > = above
!!!RDF**kern: < = below
!!!ENC: Leszek Kubiak
!!!END: 2018-07-16
!!!EED: Mateusz Mrugas
!!!EST: revision finished 2018-07-19
!!!RDF**kern: i = editorial accidental
!!!rism-genre: Nocturne
!!!rism-key: C-sharp minor
!!!rism-opus: op. 27, no. 1
!!!rism-title: Nocturne in C-sharp minor op. 27, no. 1
!!!rism-permalink: https://opac.rism.info/search?id=1001022575&View=rism
!!!rism-773a-OPR: 1001022573
!!!rism-parent-permalink: https://opac.rism.info/search?id=1001022573&View=rism
